furshet/public/image/icons/cart.svg

<svg width="30" height="30" viewBox="0 0 30 30" fill="none" xmlns="http://www.w3.org/2000/svg">
<path d="M12.1875 25.3125C12.1875 25.6833 12.0775 26.0459 11.8715 26.3542C11.6655 26.6625 11.3726 26.9029 11.03 27.0448C10.6874 27.1867 10.3104 27.2238 9.94671 27.1515C9.58299 27.0791 9.2489 26.9005 8.98668 26.6383C8.72445 26.3761 8.54587 26.042 8.47353 25.6783C8.40118 25.3146 8.43831 24.9376 8.58023 24.595C8.72214 24.2524 8.96246 23.9595 9.27081 23.7535C9.57915 23.5475 9.94166 23.4375 10.3125 23.4375C10.8098 23.4375 11.2867 23.635 11.6383 23.9867C11.99 24.3383 12.1875 24.8152 12.1875 25.3125ZM22.5 23.4375C22.1292 23.4375 21.7666 23.5475 21.4583 23.7535C21.15 23.9595 20.9096 24.2524 20.7677 24.595C20.6258 24.9376 20.5887 25.3146 20.661 25.6783C20.7334 26.042 20.912 26.3761 21.1742 26.6383C21.4364 26.9005 21.7705 27.0791 22.1342 27.1515C22.4979 27.2238 22.8749 27.1867 23.2175 27.0448C23.5601 26.9029 23.853 26.6625 24.059 26.3542C24.265 26.0459 24.375 25.6833 24.375 25.3125C24.375 24.8152 24.1775 24.3383 23.8258 23.9867C23.4742 23.635 22.9973 23.4375 22.5 23.4375ZM28.091 8.68828L25.0863 19.5023C24.9211 20.0931 24.5678 20.6138 24.0799 20.9856C23.592 21.3574 22.9962 21.5599 22.3828 21.5625H10.8C10.1848 21.5622 9.58658 21.3607 9.09656 20.9888C8.60654 20.6168 8.25163 20.0948 8.08594 19.5023L3.975 4.6875H1.875C1.62636 4.6875 1.3879 4.58873 1.21209 4.41291C1.03627 4.2371 0.9375 3.99864 0.9375 3.75C0.9375 3.50136 1.03627 3.2629 1.21209 3.08709C1.3879 2.91127 1.62636 2.8125 1.875 2.8125H4.6875C4.89246 2.81246 5.09179 2.87959 5.25497 3.00362C5.41815 3.12764 5.53619 3.30173 5.59102 3.49922L6.70195 7.5H27.1875C27.332 7.49997 27.4746 7.53336 27.6041 7.59756C27.7336 7.66175 27.8465 7.75502 27.934 7.87007C28.0214 7.98511 28.0811 8.11883 28.1084 8.26077C28.1356 8.40271 28.1297 8.54902 28.091 8.68828ZM25.9535 9.375H7.22344L9.89648 19.0008C9.95131 19.1983 10.0694 19.3724 10.2325 19.4964C10.3957 19.6204 10.595 19.6875 10.8 19.6875H22.3828C22.5878 19.6875 22.7871 19.6204 22.9503 19.4964C23.1135 19.3724 23.2315 19.1983 23.2863 19.0008L25.9535 9.375Z" fill="white"/>
</svg>

<svg xmlns="http://www.w3.org/2000/svg" width="30" height="30" fill="none" viewBox="0 0 30 30"><path fill="#fff" d="M12.188 25.313a1.875 1.875 0 1 1-3.751 0 1.875 1.875 0 0 1 3.75 0M22.5 23.438a1.875 1.875 0 1 0 0 3.75 1.875 1.875 0 0 0 0-3.75m5.591-14.75-3.005 10.814a2.82 2.82 0 0 1-2.703 2.06H10.8a2.82 2.82 0 0 1-2.714-2.06L3.975 4.688h-2.1a.937.937 0 1 1 0-1.875h2.813a.94.94 0 0 1 .903.686L6.701 7.5h20.487a.938.938 0 0 1 .903 1.188m-2.138.687H7.223l2.673 9.626a.94.94 0 0 0 .904.686h11.583a.94.94 0 0 0 .903-.686z"/></svg>
